public/images/hashed/1eb71d91cd3c131e29545aedf0159176.svg

<?xml version="1.0" encoding="UTF-8"?>
<svg width="80px" height="80px" viewBox="0 0 80 80" version="1.1" xmlns="http://www.w3.org/2000/svg" xmlns:xlink="http://www.w3.org/1999/xlink">
    <!-- Generator: Sketch 64 (93537) - https://sketch.com -->
    <title>Icon-Architecture/64/Arch_AWS-IoT-Device-Management_64</title>
    <desc>Created with Sketch.</desc>
    <defs>
        <linearGradient x1="0%" y1="100%" x2="100%" y2="0%" id="linearGradient-1">
            <stop stop-color="#1B660F" offset="0%"></stop>
            <stop stop-color="#6CAE3E" offset="100%"></stop>
        </linearGradient>
    </defs>
    <g id="Icon-Architecture/64/Arch_AWS-IoT-Device-Management_64" stroke="none" stroke-width="1" fill="none" fill-rule="evenodd">
        <g id="Icon-Architecture-BG/64/Internet-of-Things" fill="url(#linearGradient-1)">
            <rect id="Rectangle" x="0" y="0" width="80" height="80"></rect>
        </g>
        <path d="M63,53.404206 L40.011,65.8570302 L18,53.4162058 L18,26.5835846 L40.011,14.1437602 L63,26.5955844 L63,53.404206 Z M64.477,25.1206052 L40.477,12.1207887 C40.172,11.956791 39.807,11.959791 39.508,12.1297886 L16.508,25.1296051 C16.194,25.3066026 16,25.6395979 16,26.0005928 L16,54.0001976 C16,54.3601925 16.194,54.6931878 16.508,54.8701853 L39.508,67.8700018 C39.66,67.9570006 39.83,68 40,68 C40.164,68 40.328,67.9600006 40.477,67.8790017 L64.477,54.8791852 C64.799,54.7041877 65,54.3671924 65,54.0001976 L65,26.0005928 C65,25.633598 64.799,25.2956028 64.477,25.1206052 L64.477,25.1206052 Z M55.858,42.7523564 C55.858,48.3882768 51.273,52.9732121 45.638,52.9732121 C44.399,52.9732121 43.18,52.7322155 42.029,52.2982216 C43.779,50.9052413 45.108,49.0672672 45.87,46.9622969 C48.176,46.7702996 50,44.8543267 50,42.5003599 C50,41.7813701 49.814,41.1103795 49.514,40.507388 C50.822,38.8144119 51.636,36.8054403 51.898,34.6784703 C54.369,36.6004432 55.858,39.5824011 55.858,42.7523564 L55.858,42.7523564 Z M24.196,42.7523564 C24.196,39.6044008 25.668,36.6434426 28.109,34.7214697 C28.378,36.8214401 29.189,38.812412 30.49,40.4983882 C30.187,41.1043796 30,41.7773701 30,42.5003599 C30,44.8743264 31.854,46.8042992 34.187,46.9682969 C34.949,49.0702672 36.276,50.9062413 38.025,52.2982216 C36.875,52.7322155 35.655,52.9732121 34.417,52.9732121 C28.781,52.9732121 24.196,48.3882768 24.196,42.7523564 L24.196,42.7523564 Z M48.191,38.9154105 C47.484,38.383418 46.624,38.0574226 45.683,38.0184232 C45.344,37.2094346 44.905,36.4374455 44.395,35.7134557 C44.769,35.056465 45,34.3084755 45,33.5004869 C45,33.1814915 44.965,32.8724958 44.901,32.5725 C46.662,32.4465018 48.412,32.7674973 49.985,33.5074868 C49.926,35.4664592 49.301,37.3364328 48.191,38.9154105 L48.191,38.9154105 Z M45.5,45.0003246 C44.121,45.0003246 43,43.8783405 43,42.5003599 C43,41.1213794 44.121,40.0003952 45.5,40.0003952 C46.879,40.0003952 48,41.1213794 48,42.5003599 C48,43.8783405 46.879,45.0003246 45.5,45.0003246 L45.5,45.0003246 Z M34.5,40.0003952 C35.879,40.0003952 37,41.1213794 37,42.5003599 C37,43.8783405 35.879,45.0003246 34.5,45.0003246 C33.121,45.0003246 32,43.8783405 32,42.5003599 C32,41.1213794 33.121,40.0003952 34.5,40.0003952 L34.5,40.0003952 Z M36.261,34.9494665 C35.486,35.8814533 34.839,36.9104388 34.375,38.0124233 C33.414,38.0394229 32.535,38.3704182 31.815,38.9094106 C30.708,37.3314329 30.081,35.4734591 30.016,33.5354865 C31.88,32.644499 33.993,32.3395033 36.083,32.6814985 C36.033,32.9474948 36,33.2194909 36,33.5004869 C36,34.0094798 36.104,34.491473 36.261,34.9494665 L36.261,34.9494665 Z M43,33.5004869 C43,34.8784675 41.879,36.0004517 40.5,36.0004517 C39.121,36.0004517 38,34.8784675 38,33.5004869 C38,32.1215064 39.121,31.0005222 40.5,31.0005222 C41.879,31.0005222 43,32.1215064 43,33.5004869 L43,33.5004869 Z M41,42.5003599 C41,42.8073556 41.031,43.1073514 41.091,43.3973473 C40.373,43.4723462 39.633,43.4743462 38.91,43.3943473 C38.969,43.1053514 39,42.8063556 39,42.5003599 C39,40.6963854 37.928,39.1494072 36.393,38.4314173 C36.67,37.8394257 36.992,37.2654338 37.382,36.7324413 C38.191,37.5134303 39.288,38.0004234 40.5,38.0004234 C41.425,38.0004234 42.285,37.7184274 43,37.2384342 C43.243,37.6154289 43.461,38.0054234 43.65,38.4084177 C42.092,39.1164077 41,40.6793856 41,42.5003599 L41,42.5003599 Z M40.027,51.283236 C38.305,50.1502519 36.975,48.5452746 36.205,46.6603012 C36.927,46.3623054 37.543,45.8743123 38.021,45.2693208 C38.677,45.3823192 39.346,45.4573182 40.03,45.4573182 C40.7,45.4573182 41.351,45.3843192 41.986,45.2773207 C42.474,45.8913121 43.105,46.3813051 43.845,46.675301 C43.073,48.5532745 41.746,50.1542519 40.027,51.283236 L40.027,51.283236 Z M40.005,23.1936324 C44.83,23.1936324 48.904,26.692583 49.807,31.2715184 C47.955,30.6005279 45.949,30.380531 43.957,30.6545271 C43.131,29.6535412 41.896,29.0005505 40.5,29.0005505 C39.035,29.0005505 37.744,29.7145404 36.922,30.8005251 C34.644,30.3275317 32.313,30.5135291 30.191,31.2945181 C31.091,26.697583 35.172,23.1936324 40.005,23.1936324 L40.005,23.1936324 Z M40.005,21.1936607 C33.72,21.1936607 28.495,26.1335909 28.045,32.3455032 C24.436,34.560472 22.196,38.5104162 22.196,42.7523564 C22.196,49.4902613 27.679,54.9731839 34.417,54.9731839 C36.374,54.9731839 38.296,54.4791908 40.027,53.5822035 C41.759,54.4791908 43.681,54.9731839 45.638,54.9731839 C52.376,54.9731839 57.858,49.4902613 57.858,42.7523564 C57.858,38.4874166 55.597,34.5154726 51.954,32.3075038 C51.493,26.1215911 46.278,21.1936607 40.005,21.1936607 L40.005,21.1936607 Z" id="AWS-IoT-Device-Management_Icon_64_Squid" fill="#FFFFFF"></path>
    </g>
</svg>

<svg xmlns="http://www.w3.org/2000/svg" width="80" height="80"><defs><linearGradient id="a" x1="0%" x2="100%" y1="100%" y2="0%"><stop offset="0%" stop-color="#1B660F"/><stop offset="100%" stop-color="#6CAE3E"/></linearGradient></defs><g fill="none" fill-rule="evenodd"><path fill="url(#a)" d="M0 0h80v80H0z"/><path fill="#FFF" d="M63 53.404 40.011 65.857 18 53.417V26.583l22.011-12.44L63 26.596v26.808Zm1.477-28.283-24-13a1 1 0 0 0-.969.009l-23 13A1 1 0 0 0 16 26v28c0 .36.194.693.508.87l23 13a.99.99 0 0 0 .969.009l24-13A1 1 0 0 0 65 54V26c0-.366-.201-.704-.523-.88Zm-8.619 17.631c0 5.636-4.585 10.221-10.22 10.221-1.239 0-2.458-.24-3.609-.675a12.06 12.06 0 0 0 3.841-5.336C48.176 46.77 50 44.854 50 42.5c0-.719-.186-1.39-.486-1.993a11.886 11.886 0 0 0 2.384-5.829 10.257 10.257 0 0 1 3.96 8.074Zm-31.662 0c0-3.148 1.472-6.109 3.913-8.03.269 2.1 1.08 4.09 2.381 5.776A4.455 4.455 0 0 0 30 42.5c0 2.374 1.854 4.304 4.187 4.468a12.055 12.055 0 0 0 3.838 5.33c-1.15.434-2.37.675-3.608.675-5.636 0-10.221-4.585-10.221-10.22Zm23.995-3.837a4.456 4.456 0 0 0-2.508-.897 12.22 12.22 0 0 0-1.288-2.305A4.454 4.454 0 0 0 45 33.5c0-.319-.035-.628-.099-.928a10.222 10.222 0 0 1 5.084.935 9.896 9.896 0 0 1-1.794 5.408ZM45.5 45a2.503 2.503 0 0 1-2.5-2.5c0-1.379 1.121-2.5 2.5-2.5s2.5 1.121 2.5 2.5c0 1.378-1.121 2.5-2.5 2.5Zm-11-5c1.379 0 2.5 1.121 2.5 2.5 0 1.378-1.121 2.5-2.5 2.5a2.503 2.503 0 0 1-2.5-2.5c0-1.379 1.121-2.5 2.5-2.5Zm1.761-5.05a12.251 12.251 0 0 0-1.886 3.062 4.462 4.462 0 0 0-2.56.897 9.918 9.918 0 0 1-1.799-5.374 10.225 10.225 0 0 1 6.067-.854c-.05.266-.083.538-.083.82 0 .508.104.99.261 1.448ZM43 33.5c0 1.378-1.121 2.5-2.5 2.5a2.503 2.503 0 0 1-2.5-2.5c0-1.378 1.121-2.5 2.5-2.5s2.5 1.122 2.5 2.5Zm-2 9c0 .307.031.607.091.897a10.26 10.26 0 0 1-2.181-.003 4.496 4.496 0 0 0-2.517-4.963 10.14 10.14 0 0 1 .989-1.699 4.478 4.478 0 0 0 5.618.506c.243.377.461.767.65 1.17A4.5 4.5 0 0 0 41 42.5Zm-.973 8.783a10.115 10.115 0 0 1-3.822-4.623 4.522 4.522 0 0 0 1.816-1.39 11.81 11.81 0 0 0 2.009.187c.67 0 1.321-.073 1.956-.18a4.505 4.505 0 0 0 1.859 1.398 10.115 10.115 0 0 1-3.818 4.608Zm-.022-28.09c4.825 0 8.899 3.5 9.802 8.079a12.263 12.263 0 0 0-5.85-.617C43.131 29.654 41.896 29 40.5 29c-1.465 0-2.756.714-3.578 1.8a12.267 12.267 0 0 0-6.731.494c.9-4.597 4.981-8.101 9.814-8.101Zm0-2c-6.285 0-11.51 4.94-11.96 11.153-3.609 2.214-5.849 6.164-5.849 10.406 0 6.738 5.483 12.221 12.221 12.221 1.957 0 3.879-.494 5.61-1.39a12.219 12.219 0 0 0 5.611 1.39c6.738 0 12.22-5.483 12.22-12.22 0-4.266-2.261-8.238-5.904-10.445-.461-6.186-5.676-11.114-11.949-11.114Z"/></g></svg>
